app/static/img/bitcoin-cash-circle-wt.svg

<svg xmlns="http://www.w3.org/2000/svg" width="788" height="788"><g fill-rule="nonzero" fill="none"><circle cx="394" cy="394" r="394" fill="#FFF"/><path fill="#000" d="M516.9 261.7c-19.8-44.9-65.3-54.5-121-45.2L378 147.1 335.8 158l17.6 69.2c-11.1 2.8-22.5 5.2-33.8 8.4L302 166.8l-42.2 10.9 17.9 69.4c-9.1 2.6-85.2 22.1-85.2 22.1l11.6 45.2s31-8.7 30.7-8c17.2-4.5 25.3 4.1 29.1 12.2l49.2 190.2c.6 5.5-.4 14.9-12.2 18.1.7.4-30.7 7.9-30.7 7.9l4.6 52.7s75.4-19.3 85.3-21.8l18.1 70.2 42.2-10.9-18.1-70.7c11.6-2.7 22.9-5.5 33.9-8.4l18 70.3 42.2-10.9-18.1-70.1c65-15.8 110.9-56.8 101.5-119.5-6-37.8-47.3-68.8-81.6-72.3 21.1-18.7 31.8-46 18.7-81.7zm-20.3 165.5c8.4 62.1-77.9 69.7-106.4 77.2l-24.8-92.9c28.6-7.5 117-39 131.2 15.7zm-52-126.5c8.9 55.2-64.9 61.6-88.7 67.7l-22.6-84.3c23.9-5.9 93.2-34.5 111.3 16.6z"/></g></svg>

<svg xmlns="http://www.w3.org/2000/svg" xmlns:xlink="http://www.w3.org/1999/xlink" width="788" height="788" version="1.1" viewBox="0 0 788 788"><title>bitcoin-cash-circle</title><g id="Page-1" fill="none" fill-rule="evenodd" stroke="none" stroke-width="1"><g id="bitcoin-cash-circle" fill-rule="nonzero"><circle id="Oval" cx="394" cy="394" r="394" fill="#FFF"/><path id="symbol_1_" fill="#000" d="M516.9,261.7 C497.1,216.8 451.6,207.2 395.9,216.5 L378,147.1 L335.8,158 L353.4,227.2 C342.3,230 330.9,232.4 319.6,235.6 L302,166.8 L259.8,177.7 L277.7,247.1 C268.6,249.7 192.5,269.2 192.5,269.2 L204.1,314.4 C204.1,314.4 235.1,305.7 234.8,306.4 C252,301.9 260.1,310.5 263.9,318.6 L313.1,508.8 C313.7,514.3 312.7,523.7 300.9,526.9 C301.6,527.3 270.2,534.8 270.2,534.8 L274.8,587.5 C274.8,587.5 350.2,568.2 360.1,565.7 L378.2,635.9 L420.4,625 L402.3,554.3 C413.9,551.6 425.2,548.8 436.2,545.9 L454.2,616.2 L496.4,605.3 L478.3,535.2 C543.3,519.4 589.2,478.4 579.8,415.7 C573.8,377.9 532.5,346.9 498.2,343.4 C519.3,324.7 530,297.4 516.9,261.7 L516.9,261.7 Z M496.6,427.2 C505,489.3 418.7,496.9 390.2,504.4 L365.4,411.5 C394,404 482.4,372.5 496.6,427.2 Z M444.6,300.7 C453.5,355.9 379.7,362.3 355.9,368.4 L333.3,284.1 C357.2,278.2 426.5,249.6 444.6,300.7 Z"/></g></g></svg>
